dist/icons/svg_solid_color/science__measuring-flask_solid_color_16.svg

<svg version="1.1" xmlns="http://www.w3.org/2000/svg" x="0" y="0" viewBox="0 0 512 512" xml:space="preserve"><style type="text/css">.st2{fill:#999}.st4{fill:#826049}</style><path d="M506 181h-43c-3.3 0-6-2.7-6-6s-2.7-6-6-6h-61.1c-.7-11.6-5.5-22.6-13.7-31l-48.5-49.2c-8.4-8.5-11.4-20.9-7.8-32.3L332 19H180l12.1 37.5c3.6 11.3.7 23.8-7.7 32.3L135.8 138c-8.9 9-13.8 21.1-13.8 33.7V480c0 17.7 14.3 32 32 32h204c17.7 0 32-14.3 32-32V224h61c3.3 0 6-2.7 6-6s2.7-6 6-6h43c3.3 0 6-2.7 6-6v-19c0-3.3-2.7-6-6-6z" fill="#f8f8f8"/><path d="M138 259v221c0 8.8 7.2 16 16 16h204c8.8 0 16-7.2 16-16V259H138z" fill="#cc584c"/><path class="st2" d="M238 191h42v4h-42v-4zm0 57h21v4h-21v-4zm0-19h21v4h-21v-4zm0-19h21v4h-21v-4zm0-38h21v4h-21v-4zm0-19h21v4h-21v-4zm0-19h21v4h-21v-4zm0-19h21v4h-21v-4zm0-19h42v4h-42v-4z"/><path d="M238 476h42v4h-42v-4zm0-95h42v4h-42v-4zm0-95h42v4h-42v-4zm0 171h21v4h-21v-4zm0-19h21v4h-21v-4zm0-19h21v4h-21v-4zm0-19h21v4h-21v-4zm0-38h21v4h-21v-4zm0-19h21v4h-21v-4zm0-19h21v4h-21v-4zm0-19h21v4h-21v-4zm0-38h21v4h-21v-4z" fill="#f8f8f8fff"/><path class="st4" d="M341 0H171c-1.7 0-3 1.3-3 3v13c0 1.7 1.3 3 3 3h16.4c5 0 9.5 3.1 11.2 7.8l16.5 43.5c1.8 4.7 6.2 7.8 11.2 7.8h59.4c5 0 9.5-3.1 11.2-7.8l16.5-43.5c1.8-4.7 6.2-7.8 11.2-7.8H341c1.7 0 3-1.3 3-3V3c0-1.7-1.3-3-3-3z"/><path class="st4" d="M341 19H171c-1.7 0-3-1.3-3-3V3c0-1.7 1.3-3 3-3h170c1.7 0 3 1.3 3 3v13c0 1.7-1.3 3-3 3z"/><path d="M332 19H180l12.1 37.5c3.3 10.2 1.2 21.2-5.2 29.5h138.4c-6.5-8.3-8.5-19.3-5.2-29.5L332 19z" opacity=".5" fill="#f8f8f8"/><path class="st2" d="M326.5 23l-10.4 32.3c-4.1 12.8-.7 26.7 8.8 36.3l48.5 49.2c7.5 7.7 12 17.8 12.6 28.4l.2 3.8H451c1.1 0 2 .9 2 2 0 5.5 4.5 10 10 10h43c1.1 0 2 .9 2 2v19c0 1.1-.9 2-2 2h-43c-5.5 0-10 4.5-10 10 0 1.1-.9 2-2 2h-65v260c0 15.4-12.6 28-28 28H154c-15.4 0-28-12.6-28-28V171.7c0-11.7 4.5-22.6 12.6-30.9l48.6-49.2c9.4-9.6 12.8-23.5 8.7-36.3L185.5 23h141m5.5-4H180l12.1 37.5c3.6 11.3.7 23.8-7.7 32.3L135.8 138c-8.9 9-13.8 21.1-13.8 33.7V480c0 17.7 14.3 32 32 32h204c17.7 0 32-14.3 32-32V224h61c3.3 0 6-2.7 6-6s2.7-6 6-6h43c3.3 0 6-2.7 6-6v-19c0-3.3-2.7-6-6-6h-43c-3.3 0-6-2.7-6-6s-2.7-6-6-6h-61.1c-.7-11.6-5.5-22.6-13.7-31l-48.5-49.2c-8.4-8.5-11.4-20.9-7.8-32.3L332 19z"/><circle cx="453.5" cy="196.5" r="35.5" fill="#e0ac7e"/><circle class="st4" cx="453.5" cy="196.5" r="9"/><path class="st4" d="M431.3 177.1l-4.3-4.3c.9-1 1.8-1.9 2.8-2.8l4.3 4.3c-1 .9-1.9 1.8-2.8 2.8zm57.6 17.4h-6c0 .7.1 1.3.1 2s0 1.3-.1 2h6c0-.7.1-1.3.1-2s0-1.3-.1-2zm-13.2-17.4l4.3-4.3c-.9-1-1.8-1.9-2.8-2.8l-4.3 4.3c1 .9 1.9 1.8 2.8 2.8zM424 196.5c0-.7 0-1.3.1-2h-6c0 .7-.1 1.3-.1 2s0 1.3.1 2h6c-.1-.7-.1-1.3-.1-2zm29.5-29.5c.7 0 1.3 0 2 .1v-6c-.7 0-1.3-.1-2-.1s-1.3 0-2 .1v6c.7-.1 1.3-.1 2-.1zm19.4 51.7l4.3 4.3c1-.9 1.9-1.8 2.8-2.8l-4.3-4.3c-.9 1-1.8 1.9-2.8 2.8zm-41.6-2.8l-4.3 4.3c.9 1 1.8 1.9 2.8 2.8l4.3-4.3c-1-.9-1.9-1.8-2.8-2.8zm22.2 10.1c-.7 0-1.3 0-2-.1v6c.7 0 1.3.1 2 .1s1.3 0 2-.1v-6c-.7.1-1.3.1-2 .1zm-27.9-38.9l-5.6-2.3c.4-1.3 1-2.5 1.5-3.7l5.6 2.3c-.6 1.2-1.1 2.4-1.5 3.7zm59.9-6l-5.6 2.3c.3.6.6 1.2.8 1.8.3.6.5 1.2.7 1.9l5.6-2.3c-.2-.6-.5-1.3-.7-1.9-.3-.6-.5-1.2-.8-1.8zm-18.9-11l2.3-5.6c-1.2-.6-2.4-1.1-3.7-1.5l-2.3 5.6c1.3.4 2.5.9 3.7 1.5zm-40.4 37.7c-.3-.6-.5-1.2-.7-1.9l-5.6 2.3c.2.6.5 1.3.7 1.9.3.6.5 1.2.8 1.8l5.6-2.3c-.2-.6-.5-1.2-.8-1.8zm16-38.6c.6-.3 1.2-.5 1.9-.7l-2.3-5.6c-.6.2-1.3.5-1.9.7-.6.3-1.2.5-1.8.8l2.3 5.6c.6-.2 1.2-.5 1.8-.8zm37.7 40.4l5.6 2.3c.6-1.2 1.1-2.4 1.5-3.7l-5.6-2.3c-.4 1.3-.9 2.5-1.5 3.7zm-39.5 13.3l-2.3 5.6c1.2.6 2.4 1.1 3.7 1.5l2.3-5.6c-1.3-.4-2.5-.9-3.7-1.5zm24.4.9c-.6.3-1.2.5-1.9.7l2.3 5.6c.6-.2 1.3-.5 1.9-.7.6-.3 1.2-.5 1.8-.8l-2.3-5.6c-.6.2-1.2.5-1.8.8z"/></svg>

<?xml version="1.0" encoding="utf-8"?>
<!-- Generator: Adobe Illustrator 22.1.0, SVG Export Plug-In . SVG Version: 6.00 Build 0)  -->
<svg version="1.1" id="icon" xmlns="http://www.w3.org/2000/svg" xmlns:xlink="http://www.w3.org/1999/xlink" x="0px" y="0px"
	 viewBox="0 0 512 512" style="enable-background:new 0 0 512 512;" xml:space="preserve">
<style type="text/css">
	.st0{fill:#F8F8F8;}
	.st1{fill:#CC584C;}
	.st2{fill:#999999;}
	.st3{fill:#f8f8f8FFF;}
	.st4{fill:#826049;}
	.st5{opacity:0.5;fill:#F8F8F8;enable-background:new    ;}
	.st6{fill:#E0AC7E;}
</style>
<path class="st0" d="M506,181h-43c-3.3,0-6-2.7-6-6s-2.7-6-6-6h-61.1c-0.7-11.6-5.5-22.6-13.7-31l-48.5-49.2
	c-8.4-8.5-11.4-20.9-7.8-32.3L332,19H180l12.1,37.5c3.6,11.3,0.7,23.8-7.7,32.3L135.8,138c-8.9,9-13.8,21.1-13.8,33.7V480
	c0,17.7,14.3,32,32,32h204c17.7,0,32-14.3,32-32V224h61c3.3,0,6-2.7,6-6s2.7-6,6-6h43c3.3,0,6-2.7,6-6v-19
	C512,183.7,509.3,181,506,181z"/>
<path class="st1" d="M138,259v221c0,8.8,7.2,16,16,16h204c8.8,0,16-7.2,16-16V259H138z"/>
<path class="st2" d="M238,191h42v4h-42V191z M238,248h21v4h-21V248z M238,229h21v4h-21V229z M238,210h21v4h-21V210z M238,172h21v4
	h-21V172z M238,153h21v4h-21V153z M238,134h21v4h-21V134z M238,115h21v4h-21V115z M238,96h42v4h-42V96z"/>
<path class="st3" d="M238,476h42v4h-42V476z M238,381h42v4h-42V381z M238,286h42v4h-42V286z M238,457h21v4h-21V457z M238,438h21v4
	h-21V438z M238,419h21v4h-21V419z M238,400h21v4h-21V400z M238,362h21v4h-21V362z M238,343h21v4h-21V343z M238,324h21v4h-21V324z
	 M238,305h21v4h-21V305z M238,267h21v4h-21V267z"/>
<path class="st4" d="M341,0H171c-1.7,0-3,1.3-3,3v13c0,1.7,1.3,3,3,3h16.4c5,0,9.5,3.1,11.2,7.8l16.5,43.5c1.8,4.7,6.2,7.8,11.2,7.8
	h59.4c5,0,9.5-3.1,11.2-7.8l16.5-43.5c1.8-4.7,6.2-7.8,11.2-7.8H341c1.7,0,3-1.3,3-3V3C344,1.3,342.7,0,341,0z"/>
<path class="st4" d="M341,19H171c-1.7,0-3-1.3-3-3V3c0-1.7,1.3-3,3-3h170c1.7,0,3,1.3,3,3v13C344,17.7,342.7,19,341,19z"/>
<path class="st5" d="M332,19H180l12.1,37.5c3.3,10.2,1.2,21.2-5.2,29.5h138.4c-6.5-8.3-8.5-19.3-5.2-29.5L332,19z"/>
<path class="st2" d="M326.5,23l-10.4,32.3c-4.1,12.8-0.7,26.7,8.8,36.3l48.5,49.2c7.5,7.7,12,17.8,12.6,28.4l0.2,3.8H451
	c1.1,0,2,0.9,2,2c0,5.5,4.5,10,10,10h43c1.1,0,2,0.9,2,2v19c0,1.1-0.9,2-2,2h-43c-5.5,0-10,4.5-10,10c0,1.1-0.9,2-2,2h-65v260
	c0,15.4-12.6,28-28,28H154c-15.4,0-28-12.6-28-28V171.7c0-11.7,4.5-22.6,12.6-30.9l48.6-49.2c9.4-9.6,12.8-23.5,8.7-36.3L185.5,23
	H326.5 M332,19H180l12.1,37.5c3.6,11.3,0.7,23.8-7.7,32.3L135.8,138c-8.9,9-13.8,21.1-13.8,33.7V480c0,17.7,14.3,32,32,32h204
	c17.7,0,32-14.3,32-32V224h61c3.3,0,6-2.7,6-6s2.7-6,6-6h43c3.3,0,6-2.7,6-6v-19c0-3.3-2.7-6-6-6h-43c-3.3,0-6-2.7-6-6s-2.7-6-6-6
	h-61.1c-0.7-11.6-5.5-22.6-13.7-31l-48.5-49.2c-8.4-8.5-11.4-20.9-7.8-32.3L332,19z"/>
<circle class="st6" cx="453.5" cy="196.5" r="35.5"/>
<circle class="st4" cx="453.5" cy="196.5" r="9"/>
<path class="st4" d="M431.3,177.1l-4.3-4.3c0.9-1,1.8-1.9,2.8-2.8l4.3,4.3C433.1,175.2,432.2,176.1,431.3,177.1z M488.9,194.5h-6
	c0,0.7,0.1,1.3,0.1,2s0,1.3-0.1,2h6c0-0.7,0.1-1.3,0.1-2S489,195.2,488.9,194.5z M475.7,177.1l4.3-4.3c-0.9-1-1.8-1.9-2.8-2.8
	l-4.3,4.3C473.9,175.2,474.8,176.1,475.7,177.1z M424,196.5c0-0.7,0-1.3,0.1-2h-6c0,0.7-0.1,1.3-0.1,2s0,1.3,0.1,2h6
	C424,197.8,424,197.2,424,196.5z M453.5,167c0.7,0,1.3,0,2,0.1v-6c-0.7,0-1.3-0.1-2-0.1s-1.3,0-2,0.1v6
	C452.2,167,452.8,167,453.5,167z M472.9,218.7l4.3,4.3c1-0.9,1.9-1.8,2.8-2.8l-4.3-4.3C474.8,216.9,473.9,217.8,472.9,218.7z
	 M431.3,215.9l-4.3,4.3c0.9,1,1.8,1.9,2.8,2.8l4.3-4.3C433.1,217.8,432.2,216.9,431.3,215.9z M453.5,226c-0.7,0-1.3,0-2-0.1v6
	c0.7,0,1.3,0.1,2,0.1s1.3,0,2-0.1v-6C454.8,226,454.2,226,453.5,226z M425.6,187.1l-5.6-2.3c0.4-1.3,1-2.5,1.5-3.7l5.6,2.3
	C426.5,184.6,426,185.8,425.6,187.1z M485.5,181.1l-5.6,2.3c0.3,0.6,0.6,1.2,0.8,1.8c0.3,0.6,0.5,1.2,0.7,1.9l5.6-2.3
	c-0.2-0.6-0.5-1.3-0.7-1.9C486,182.3,485.8,181.7,485.5,181.1z M466.6,170.1l2.3-5.6c-1.2-0.6-2.4-1.1-3.7-1.5l-2.3,5.6
	C464.2,169,465.4,169.5,466.6,170.1z M426.2,207.8c-0.3-0.6-0.5-1.2-0.7-1.9l-5.6,2.3c0.2,0.6,0.5,1.3,0.7,1.9
	c0.3,0.6,0.5,1.2,0.8,1.8l5.6-2.3C426.8,209,426.5,208.4,426.2,207.8z M442.2,169.2c0.6-0.3,1.2-0.5,1.9-0.7l-2.3-5.6
	c-0.6,0.2-1.3,0.5-1.9,0.7c-0.6,0.3-1.2,0.5-1.8,0.8l2.3,5.6C441,169.8,441.6,169.5,442.2,169.2z M479.9,209.6l5.6,2.3
	c0.6-1.2,1.1-2.4,1.5-3.7l-5.6-2.3C481,207.2,480.5,208.4,479.9,209.6z M440.4,222.9l-2.3,5.6c1.2,0.6,2.4,1.1,3.7,1.5l2.3-5.6
	C442.8,224,441.6,223.5,440.4,222.9z M464.8,223.8c-0.6,0.3-1.2,0.5-1.9,0.7l2.3,5.6c0.6-0.2,1.3-0.5,1.9-0.7
	c0.6-0.3,1.2-0.5,1.8-0.8l-2.3-5.6C466,223.2,465.4,223.5,464.8,223.8z"/>
</svg>
